packages/assets/static/images/icons/list-plus.svg

<svg width="24" height="24" viewBox="0 0 24 24" xmlns="http://www.w3.org/2000/svg">
<path d="M2.24991 4.87549C2.24991 4.67658 2.32893 4.48581 2.46958 4.34516C2.61023 4.20451 2.801 4.12549 2.99991 4.12549H19.4999C19.6988 4.12549 19.8896 4.20451 20.0302 4.34516C20.1709 4.48581 20.2499 4.67658 20.2499 4.87549C20.2499 5.0744 20.1709 5.26517 20.0302 5.40582C19.8896 5.54647 19.6988 5.62549 19.4999 5.62549H2.99991C2.801 5.62549 2.61023 5.54647 2.46958 5.40582C2.32893 5.26517 2.24991 5.0744 2.24991 4.87549ZM2.99991 11.6255H19.4999C19.6988 11.6255 19.8896 11.5465 20.0302 11.4058C20.1709 11.2652 20.2499 11.0744 20.2499 10.8755C20.2499 10.6766 20.1709 10.4858 20.0302 10.3452C19.8896 10.2045 19.6988 10.1255 19.4999 10.1255H2.99991C2.801 10.1255 2.61023 10.2045 2.46958 10.3452C2.32893 10.4858 2.24991 10.6766 2.24991 10.8755C2.24991 11.0744 2.32893 11.2652 2.46958 11.4058C2.61023 11.5465 2.801 11.6255 2.99991 11.6255ZM12.7499 16.1255H2.99991C2.801 16.1255 2.61023 16.2045 2.46958 16.3452C2.32893 16.4858 2.24991 16.6766 2.24991 16.8755C2.24991 17.0744 2.32893 17.2652 2.46958 17.4058C2.61023 17.5465 2.801 17.6255 2.99991 17.6255H12.7499C12.9488 17.6255 13.1396 17.5465 13.2802 17.4058C13.4209 17.2652 13.4999 17.0744 13.4999 16.8755C13.4999 16.6766 13.4209 16.4858 13.2802 16.3452C13.1396 16.2045 12.9488 16.1255 12.7499 16.1255ZM20.9999 16.1255H19.4999V14.6255C19.4999 14.4266 19.4209 14.2358 19.2802 14.0952C19.1396 13.9545 18.9488 13.8755 18.7499 13.8755C18.551 13.8755 18.3602 13.9545 18.2196 14.0952C18.0789 14.2358 17.9999 14.4266 17.9999 14.6255V16.1255H16.4999C16.301 16.1255 16.1102 16.2045 15.9696 16.3452C15.8289 16.4858 15.7499 16.6766 15.7499 16.8755C15.7499 17.0744 15.8289 17.2652 15.9696 17.4058C16.1102 17.5465 16.301 17.6255 16.4999 17.6255H17.9999V19.1255C17.9999 19.3244 18.0789 19.5152 18.2196 19.6558C18.3602 19.7965 18.551 19.8755 18.7499 19.8755C18.9488 19.8755 19.1396 19.7965 19.2802 19.6558C19.4209 19.5152 19.4999 19.3244 19.4999 19.1255V17.6255H20.9999C21.1988 17.6255 21.3896 17.5465 21.5302 17.4058C21.6709 17.2652 21.7499 17.0744 21.7499 16.8755C21.7499 16.6766 21.6709 16.4858 21.5302 16.3452C21.3896 16.2045 21.1988 16.1255 20.9999 16.1255Z"/>
</svg>

<svg viewBox="0 0 24 24" xmlns="http://www.w3.org/2000/svg" aria-hidden="true" fill="currentColor"><path d="M2.25 4.875a.75.75 0 0 1 .75-.75h16.5a.75.75 0 1 1 0 1.5H3a.75.75 0 0 1-.75-.75m.75 6.75h16.5a.75.75 0 1 0 0-1.5H3a.75.75 0 1 0 0 1.5m9.75 4.5H3a.75.75 0 1 0 0 1.5h9.75a.75.75 0 1 0 0-1.5m8.25 0h-1.5v-1.5a.75.75 0 1 0-1.5 0v1.5h-1.5a.75.75 0 1 0 0 1.5H18v1.5a.75.75 0 1 0 1.5 0v-1.5H21a.75.75 0 1 0 0-1.5"/></svg>
